X:14
T:Miss J. Rose
T:Miss Ross
T:Miss J. Rose's Reel
R:jig
C:Robert McIntosh
B:McIntosh's 3rd Collection, 1786
D:Lake Bras D'Or, Theresa Morrison
Z:Paul Stewart Cranford (P.S.C.), <http://www.cranfordpub.com>
L:1/8
M:6/8
Q:300
K:F
AB|c2 B AFA|def Bcd|c2 B AFA|GAF EDC|
c2 B AFA|def Bcd|cBA BAG|AFF F:|
|:z B|ABc cAF|def f2 B|ABc cAF|EFG GEC|
[1ABc cAF|def f2 c|dcB ABG|AFF F:| 
[2 DEF EFG|FGA Bcd|cAF GEC|F3 F|]
